X: 24382
T: Lovely Hurling
R: reel
M: 4/4
K: Dmajor
|:d2ef edBd|AFdF A2Bc|d2ef edBd|eAfA edBc|
d2ef edBd|AF~F2 AFFG|AF~F2 GBed|1 ceag ~f2fe:|2 ceag fdde||
|:fa~a2 afdf|bagf edce|dcdA FAAd|Beed cdeg|faaf adfa|
bagf edce|1 dcdA FAAd|Beed cAA2:|2 d3A FAAd|Beed cdec||

